X: 11024
T: Dryfe Lodge
R: jig
M: 6/8
K: Dmajor
|:A|DFA AFD|BGB AFD|DFA AFA|BAF E2 A|
DFA AFD|BGB AFD|dcB AFA|BGE D2:|
a|def edB|AFD AFD|def edB|AFD E2 A|
def edB|AFD AFD|BGB AFD|GEC D2 A|
def edB|AFD AFD|def edB|AFD E2 A|
DFA AFD|BGB AFD|dcB AFA|BGE D2||

